drapeaux/GB.svg

<svg xmlns="http://www.w3.org/2000/svg" viewBox="0 0 50 30" width="1000" height="600">
	<clipPath id="t">
		<path d="M25,15h25v15zv15h-25zh-25v-15zv-15h25z"/>
	</clipPath>
	<path d="M0,0v30h50v-30z" fill="#012169"/>
	<path d="M0,0 50,30M50,0 0,30" stroke="#fff" stroke-width="6"/>
	<path d="M0,0 50,30M50,0 0,30" clip-path="url(#t)" stroke="#C8102E" stroke-width="4"/>
	<path d="M-1 11h22v-12h8v12h22v8h-22v12h-8v-12h-22z" fill="#C8102E" stroke="#FFF" stroke-width="2"/>
</svg>

<svg xmlns="http://www.w3.org/2000/svg" width="1000" height="600" viewBox="0 0 50 30"><clipPath id="a"><path d="M25 15h25v15zv15H0zH0V0zV0h25z"/></clipPath><path fill="#012169" d="M0 0v30h50V0z"/><path stroke="#fff" stroke-width="6" d="m0 0 50 30m0-30L0 30"/><path stroke="#c8102e" stroke-width="4" d="m0 0 50 30m0-30L0 30" clip-path="url(#a)"/><path fill="#c8102e" stroke="#fff" stroke-width="2" d="M-1 11h22V-1h8v12h22v8H29v12h-8V19H-1z"/></svg>
